!!! OTL: Berkowitz172
!!! Chapter: 1
!!! Section: I
!!! Page: 39
!!! Mode: 
!!! Encoder: DJB
**kern
*staff1
*I"Piano
=1-
*clefC3
*k[]
*C:
*M3/4
4f\
4d\
4B/
=2
4c\
4d\
4e\
=3
4f\
4d\
4B/
=4
4c\
4r
8d\L
8e\J
=5
4f\
4d\
4B/
=6
8c\L
8d\J
4e\
4e\
=7
4f\
4d\
4B/
=8
4c\
4r
4g\
=9
4.a\
8g\
8f\L
8a\J
=10
4g\
4e\
4g\
=11
!!linebreak:original
4.f\
8e\
8d\L
8c\J
=12
4d\
4r
4f\
=13
4e\
4f\
4g\
=14
8a\L
8g\J
4f\
4e\
=15
4f\
4d\
4B/
=16
4c\
2r
==
*-
